icons/book/book-open.svg

<svg width="14" height="14" viewBox="0 0 14 14" fill="none" xmlns="http://www.w3.org/2000/svg">
<path d="M11.5001 2L11.6006 2.00977C11.8286 2.05631 12.0001 2.25831 12.0001 2.5V10.4902C12.0001 10.4935 12.001 10.4967 12.001 10.5C12.001 10.5356 11.9954 10.57 11.9883 10.6035C11.9415 10.8312 11.7415 11.0029 11.5001 11.0029C11.4899 11.0029 11.4798 11.0006 11.4698 11H8.50006C8.0723 11.0001 7.84761 11.1694 7.71295 11.3555C7.56031 11.5666 7.50198 11.8349 7.50006 12.0059C7.49685 12.2795 7.27372 12.4998 7.00006 12.5C6.72637 12.4998 6.50327 12.2795 6.50006 12.0059C6.49814 11.835 6.44068 11.5665 6.28815 11.3555C6.15352 11.1693 5.92801 11.0001 5.50006 11H2.52936C2.5193 11.0006 2.50929 11.0029 2.49908 11.0029C2.22309 11.0031 1.99955 10.7789 1.99908 10.5029L1.99225 2.5C1.99224 2.22404 2.21624 2.00022 2.49225 2C2.49914 2 2.50593 2.00168 2.51276 2.00195H6.00006C6.38428 2.00207 6.73472 2.14721 7.00006 2.38477C7.26556 2.14669 7.61538 2 8.00006 2H11.5001ZM8.00006 3C7.72392 3 7.50006 3.22386 7.50006 3.5V10.2422C7.77203 10.093 8.10336 10.0001 8.50006 10H11.0001V3H8.00006ZM2.99908 10H5.50006C5.89641 10.0001 6.22823 10.0922 6.50006 10.2412V3.5C6.50006 3.22472 6.2767 3.0022 6.00006 3.00195H2.99225L2.99908 10Z" fill="red"/>
</svg>

<svg xmlns="http://www.w3.org/2000/svg" width="14" height="14" fill="none" viewBox="0 0 14 14"><path fill="red" d="m11.5 2 .1.01a.5.5 0 0 1 .4.49v7.99l.001.01q-.001.053-.013.104a.5.5 0 0 1-.488.399L11.47 11H8.5c-.428 0-.652.17-.787.355a1.2 1.2 0 0 0-.213.65.5.5 0 0 1-1 0 1.2 1.2 0 0 0-.212-.65C6.154 11.17 5.928 11 5.5 11H2.53l-.03.003a.5.5 0 0 1-.5-.5L1.991 2.5a.5.5 0 0 1 .5-.5l.02.002H6c.384 0 .735.145 1 .383A1.5 1.5 0 0 1 8 2zM8 3a.5.5 0 0 0-.5.5v6.742a2.05 2.05 0 0 1 1-.242H11V3zm-5 7h2.5c.396 0 .728.092 1 .241V3.5a.5.5 0 0 0-.5-.498H2.992z"/></svg>
